X:146
T:Mason's Apron
M:4/4
L:1/8
C:Trad
R:Reel
K:A
|: ed|"A"c2 A2ABAF | EFAB c2BA |"E" d2 B2BcBA | Bcdef2ed |
"A"c2 A2ABAF | EFAB c2BA |"D" Bcde "Bm"fefa |"E7" edcB "A"A2 :|
|: ed |"A" cAeA fAeA | cAeA fedc |"Bm" dBfB gBfB | d2f2"E7" gfed | 
"A" cAeA fAeA | cAeA fedc  |"D" Bcde "Bm"fefa |"E7" edcB "A"A2 :|
